_inc/systems/logos/wiiu.svg

<?xml version="1.0" encoding="utf-8"?>
<svg version="1.1" viewBox="0 0 4766.2 1435" xmlns="http://www.w3.org/2000/svg">
  <path d="M 556.701 1070.641 C 570.269 1018.601 582.955 969.564 595.848 920.281 C 655.45 693.344 713.956 466.169 776.131 239.876 C 782.59 215.989 790.319 192.555 801.52 170.384 C 829.918 113.809 874.213 78.951 937.89 71.23 C 996.205 64.128 1051.056 72.302 1096.423 113.594 C 1128.278 142.414 1146.35 179.845 1157.955 220.302 C 1202.925 379.916 1244.217 540.388 1286.39 700.669 C 1318.213 821.986 1349.638 943.31 1381.246 1064.421 C 1381.461 1065.064 1381.89 1065.708 1382.319 1066.566 C 1386.854 1066.137 1385.345 1062.061 1385.989 1059.678 C 1437.607 857.677 1489.027 655.914 1540.645 453.92 C 1571.634 332.81 1602.607 211.699 1633.142 90.589 C 1635.533 81.342 1638.965 78.308 1648.855 78.308 C 1741.36 78.737 1833.857 78.522 1926.576 78.522 C 1941.852 78.522 1941.638 78.522 1937.539 93.592 C 1883.545 287.848 1829.782 482.311 1775.351 676.559 C 1721.143 869.958 1668.429 1063.992 1610.137 1256.286 C 1590.564 1320.614 1555.5 1374.608 1495.684 1408.822 C 1414.602 1455.07 1287.248 1445.395 1220.989 1336.319 C 1197.317 1297.387 1184.21 1254.57 1171.952 1211.348 C 1103.962 971.28 1038.783 730.346 973.39 489.413 C 972.739 486.815 971.881 484.456 970.809 481.239 C 966.281 488.126 965.637 495.212 963.707 501.884 C 903.271 724.317 843.026 946.742 780.421 1168.746 C 767.314 1215.209 756.772 1262.323 735.698 1306.212 C 713.527 1352.246 683.197 1390.535 636.52 1414.208 C 555.843 1454.856 450.66 1433.567 390.844 1366.005 C 354.279 1324.713 334.92 1275.454 319.874 1223.605 C 233.168 924.595 150.347 624.496 66.882 324.413 C 44.949 246.127 23.223 167.381 1.052 88.873 C -1.522 79.833 0.409 78.308 9.234 78.308 C 103.662 78.522 198.121 78.522 292.556 78.308 C 301.588 78.308 304.376 81.557 306.521 89.731 C 373.63 353.67 440.985 617.625 508.308 881.564 C 523.377 940.713 538.415 999.671 553.484 1058.82 C 554.128 1061.847 554.985 1064.635 556.701 1070.641 Z" style="fill: rgb(255, 255, 255);"/>
  <path d="M 4059.455 1076.034 C 3905.203 1076.034 3750.769 1076.034 3596.525 1076.034 C 3563.169 1076.034 3530.052 1071.951 3497.776 1062.276 C 3406.798 1035.386 3356.451 972.567 3339.022 881.135 C 3334.304 855.961 3332.159 830.597 3332.159 805.208 C 3332.159 601.062 3332.159 396.916 3332.159 192.769 C 3332.159 151.668 3339.237 112.093 3362.051 77.021 C 3394.311 27.555 3442.489 5.623 3499.516 1.953 C 3558.236 -1.916 3617.171 1.309 3675.907 0.451 C 3684.947 0.237 3684.089 5.408 3684.089 11.199 C 3684.089 81.342 3683.851 151.239 3684.089 221.375 C 3684.518 327.416 3681.277 433.489 3685.59 539.315 C 3688.807 622.78 3712.265 700.208 3768.197 764.965 C 3811.205 814.884 3866.064 845.428 3929.527 861.347 C 4009.123 881.135 4089.133 881.778 4168.522 861.347 C 4296.305 828.213 4372.24 744.748 4402.14 617.41 C 4411.172 578.891 4414.175 539.744 4414.175 500.383 C 4413.96 338.172 4414.175 175.984 4413.96 13.773 C 4413.96 2.811 4416.987 0.237 4427.528 0.451 C 4483.238 1.524 4539.17 -1.479 4594.887 1.953 C 4699.641 8.196 4765.249 77.236 4765.892 182.442 C 4766.535 310.877 4766.107 439.494 4766.107 567.921 C 4766.107 651.171 4766.321 734.207 4765.892 817.458 C 4765.678 854.674 4760.101 891.462 4747.177 926.525 C 4718.571 1005.462 4660.709 1049.995 4580.461 1067.638 C 4553.786 1073.675 4526.468 1076.249 4499.141 1076.249 C 4352.452 1076.034 4205.953 1076.034 4059.455 1076.034 Z" style="fill: rgb(255, 255, 255);"/>
  <path d="M 2095.437 956.211 C 2095.437 805.208 2095.651 654.412 2095.222 503.386 C 2095.222 492.63 2098.01 489.842 2108.782 489.842 C 2196.33 490.271 2284.109 490.271 2371.649 489.842 C 2381.761 489.842 2383.906 492.844 2383.906 502.528 C 2383.691 805.852 2383.691 1109.382 2383.906 1412.682 C 2383.906 1422.572 2381.332 1425.178 2371.434 1425.178 C 2283.441 1424.749 2195.472 1424.749 2107.471 1425.178 C 2097.367 1425.178 2095.222 1422.143 2095.222 1412.468 C 2095.437 1260.393 2095.437 1108.31 2095.437 956.211 Z" style="fill: rgb(255, 255, 255);"/>
  <path d="M 2682.05 956.211 C 2682.05 805.208 2682.265 654.412 2681.836 503.386 C 2681.836 492.415 2684.648 489.842 2695.404 489.842 C 2782.73 490.271 2869.864 490.271 2957.198 489.842 C 2966.873 489.842 2970.543 491.343 2970.543 502.313 C 2970.115 805.637 2970.329 1109.168 2970.543 1412.468 C 2970.543 1422.358 2967.946 1424.963 2958.056 1424.963 C 2870.079 1424.535 2782.086 1424.535 2694.117 1424.963 C 2683.79 1424.963 2681.836 1421.929 2681.836 1412.253 C 2682.265 1260.393 2682.05 1108.31 2682.05 956.211 Z" style="fill: rgb(255, 255, 255);"/>
  <path d="M 4237.569 266.122 C 4237.569 350.667 4239.285 435.419 4236.926 519.956 C 4235.417 578.033 4214.556 629.882 4170.453 669.887 C 4086.988 745.606 3927.596 730.775 3875.954 593.738 C 3865.421 565.776 3860.051 536.741 3859.812 507.056 C 3859.598 341.413 3859.598 175.984 3859.384 10.341 C 3859.384 2.596 3861.552 0.237 3869.281 0.237 C 3988.676 0.451 4108.277 0.451 4227.671 0.237 C 4236.275 0.237 4238.213 2.811 4238.213 10.985 C 4237.998 95.951 4237.998 180.917 4237.998 266.122 C 4238.213 266.122 4237.784 266.122 4237.569 266.122 Z" style="fill: rgb(255, 255, 255);"/>
  <path d="M 2066.823 167.167 C 2067.038 79.833 2137.181 6.481 2220.431 1.309 C 2281.94 -2.345 2334.647 15.727 2373.793 64.128 C 2436.613 141.556 2413.584 255.136 2326.473 303.338 C 2241.077 350.667 2137.181 324.413 2088.764 243.307 C 2073.933 218.801 2067.467 191.911 2066.823 167.167 Z" style="fill: rgb(255, 255, 255);"/>
  <path d="M 2996.551 162.416 C 2996.337 240.305 2943.225 303.553 2863.621 322.483 C 2782.086 341.842 2696.905 299.454 2666.147 223.734 C 2626.77 127.376 2688.088 23.909 2787.257 4.741 C 2859.117 -9.232 2920.625 11.843 2966.23 71.016 C 2987.09 98.334 2995.479 130.379 2996.551 162.416 Z" style="fill: rgb(255, 255, 255);"/>
</svg>

<svg xmlns="http://www.w3.org/2000/svg" viewBox="0 0 4766.2 1435"><path d="M556.7 1070.64c13.57-52.04 26.25-101.08 39.15-150.36 59.6-226.94 118.1-454.11 180.28-680.4 6.46-23.9 14.19-47.32 25.39-69.5 28.4-56.57 72.7-91.43 136.37-99.15 58.32-7.1 113.17 1.07 158.53 42.36 31.86 28.82 49.93 66.26 61.53 106.71 44.97 159.62 86.27 320.09 128.44 480.37 31.82 121.32 63.25 242.64 94.86 363.75.21.64.64 1.29 1.07 2.15 4.53-.43 3.03-4.5 3.67-6.9 51.62-202 103.04-403.76 154.65-605.75 31-121.11 61.97-242.22 92.5-363.33 2.4-9.25 5.82-12.28 15.71-12.28 92.51.43 185 .21 277.73.21 15.27 0 15.06 0 10.96 15.07-54 194.26-107.76 388.72-162.19 582.97-54.2 193.4-106.92 387.43-165.21 579.73-19.58 64.32-54.64 118.32-114.46 152.53-81.08 46.25-208.43 36.58-274.7-72.5-23.66-38.93-36.77-81.75-49.03-124.97-67.99-240.07-133.17-481-198.56-721.94-.65-2.6-1.5-4.95-2.58-8.17-4.53 6.89-5.17 13.97-7.1 20.64-60.44 222.44-120.68 444.86-183.29 666.87-13.1 46.46-23.65 93.57-44.72 137.46-22.17 46.04-52.5 84.33-99.18 108-80.68 40.65-185.86 19.36-245.68-48.2-36.56-41.3-55.92-90.56-70.97-142.4C233.17 924.6 150.35 624.5 66.88 324.4 44.95 246.13 23.22 167.38 1.05 88.87c-2.57-9.04-.64-10.56 8.18-10.56 94.43.21 188.9.21 283.33 0 9.03 0 11.82 3.25 13.96 11.42C373.63 353.67 441 617.63 508.31 881.56l45.17 177.26c.65 3.03 1.5 5.82 3.22 11.82m3502.76 5.39h-462.93c-33.36 0-66.48-4.08-98.75-13.75-90.98-26.9-141.33-89.71-158.76-181.14a412 412 0 0 1-6.86-75.93V192.77c0-41.1 7.08-80.68 29.9-115.75 32.25-49.46 80.43-71.4 137.46-75.07 58.72-3.87 117.65-.64 176.39-1.5 9.04-.21 8.18 4.96 8.18 10.75 0 70.14-.24 140.04 0 210.18.43 106.04-2.81 212.1 1.5 317.94 3.22 83.46 26.67 160.89 82.6 225.65 43.01 49.91 97.87 80.46 161.34 96.38 79.6 19.78 159.6 20.43 239 0 127.78-33.14 203.71-116.6 233.61-243.94 9.03-38.52 12.03-77.67 12.03-117.03-.21-162.2 0-324.4-.21-486.6 0-10.97 3.03-13.54 13.57-13.33 55.7 1.07 111.64-1.93 167.36 1.5 104.75 6.25 170.36 75.29 171 180.5.64 128.43.22 257.04.22 385.47 0 83.25.21 166.29-.22 249.54-.21 37.21-5.79 74-18.71 109.06-28.6 78.94-86.47 123.47-166.72 141.12-26.67 6.03-54 8.6-81.32 8.6-146.69-.2-293.19-.2-439.69-.2M2095.44 956.21c0-151 .21-301.8-.22-452.82 0-10.76 2.79-13.55 13.56-13.55 87.55.43 175.33.43 262.87 0 10.11 0 12.26 3 12.26 12.69-.22 303.32-.22 606.85 0 910.15 0 9.9-2.58 12.5-12.48 12.5q-131.97-.64-263.96 0c-10.1 0-12.25-3.04-12.25-12.71.22-152.08.22-304.16.22-456.26m586.61 0c0-151 .21-301.8-.21-452.82 0-10.97 2.8-13.55 13.56-13.55 87.33.43 174.46.43 261.8 0 9.67 0 13.34 1.5 13.34 12.47-.43 303.33-.21 606.86 0 910.16 0 9.89-2.6 12.5-12.48 12.5q-131.98-.64-263.94 0c-10.33 0-12.28-3.04-12.28-12.72.42-151.86.21-303.94.21-456.04" style="fill:#fff"/><path d="M4237.57 266.12c0 84.55 1.72 169.3-.64 253.84-1.51 58.07-22.37 109.92-66.48 149.93-83.46 75.72-242.85 60.88-294.5-76.15a250 250 0 0 1-16.14-86.68c-.21-165.65-.21-331.08-.43-496.72 0-7.74 2.17-10.1 9.9-10.1 119.4.21 239 .21 358.4 0 8.6 0 10.53 2.57 10.53 10.75-.21 84.96-.21 169.93-.21 255.13zm-2170.75-98.95c.22-87.34 70.36-160.69 153.61-165.86 61.51-3.65 114.22 14.42 153.36 62.82 62.82 77.43 39.8 191-47.32 239.2-85.4 47.34-189.29 21.08-237.7-60.02-14.84-24.5-21.3-51.4-21.95-76.14m929.73-4.75c-.21 77.89-53.33 141.13-132.93 160.06-81.53 19.36-166.71-23.03-197.47-98.75-39.38-96.35 21.94-199.82 121.1-218.99 71.87-13.97 133.38 7.1 178.98 66.28 20.86 27.31 29.25 59.36 30.32 91.4" style="fill:#fff"/></svg>
